X: 57
T: Barney Brallaghan
C: J-20
M: 9/8
Z: Transcribed to abc by Mary Lou Knack
R: slipjig
% %staffwidth 13cm
K: D
"D"F2A ABA ABA| FFF ABA d2f| F2A ABA ABA| "Em"BBB e2d "A"cBA :|
|:\
"D"f2a f2a f2d| f2a f2a "Em"gfe| "D"f2a f2a f2d| "Em"ggg e2d "A"cBA:|
\
 "D"fff a3 ddd| "Em"g2f e2d "A"cBA| "D"f2d "A"e2c "Bm"d2B| "A"A2B A2G "D"FED |
 "D"fff a3 ddd| "Em"g2f e2d "A"cBA| "D"fga "A"efg "Bm"ddd| "D"AFA "A"dAG "D"FED |]
%%text 9/1/98
